X:0011
M:2/4
L:1/8
Q:1/4=132
K:A Mixolydian
g|aeeg|aeef|gddB|gddg|aeeg|aeed|cABc|A2A:|

